media/img/discord_logo.svg

<svg fill="none" height="24" viewBox="0 0 24 24" width="24" xmlns="http://www.w3.org/2000/svg"><path d="m20.0472 5.35941c-1.4341-.62921-2.9719-1.09279-4.5798-1.3583-.0293-.00512-.0585.00769-.0736.0333-.1978.33636-.4169.77518-.5703 1.12009-1.7294-.24757-3.4499-.24757-5.14383 0-.15344-.35257-.38047-.78373-.57913-1.12009-.01509-.02476-.04434-.03757-.07362-.0333-1.60701.26466-3.14483.72824-4.57979 1.3583-.01243.00512-.02308.01367-.03014.02476-2.91694 4.16709-3.716006 8.23173-3.32401 12.24603.00178.0196.0133.0384.02927.0504 1.92451 1.3514 3.78872 2.1719 5.61832 2.7157.02928.0085.06031-.0017.07894-.0248.43279-.5651.81859-1.161 1.14937-1.7877.01952-.0367.00089-.0802-.03901-.0948-.61194-.2219-1.19462-.4926-1.75513-.7999-.04433-.0248-.04788-.0854-.00709-.1144.11795-.0845.23593-.1725.34856-.2613.02037-.0162.04877-.0196.07272-.0094 3.68227 1.6076 7.66877 1.6076 11.30757 0 .024-.011.0524-.0076.0736.0086.1127.0888.2306.1776.3495.2621.0408.029.0381.0896-.0062.1144-.5605.3133-1.1432.578-1.7561.7991-.0398.0145-.0576.0589-.0381.0956.3379.6258.7237 1.2217 1.1485 1.7869.0178.0239.0497.0341.0789.0256 1.8385-.5438 3.7027-1.3643 5.6272-2.7157.0169-.012.0275-.0299.0293-.0496.4692-4.6409-.7858-8.67223-3.3267-12.24598-.0062-.01194-.0168-.02049-.0292-.02561zm-11.52843 9.82649c-1.10862 0-2.02209-.9732-2.02209-2.1685 0-1.1952.89576-2.1684 2.02209-2.1684 1.13517 0 2.03983.9817 2.02203 2.1684 0 1.1953-.89573 2.1685-2.02203 2.1685zm7.47633 0c-1.1086 0-2.0221-.9732-2.0221-2.1685 0-1.1952.8957-2.1684 2.0221-2.1684 1.1352 0 2.0398.9817 2.0221 2.1684 0 1.1953-.8869 2.1685-2.0221 2.1685z" fill="#fff"/></svg>

<svg width="24" height="24" viewBox="0 0 24 24" fill="none" xmlns="http://www.w3.org/2000/svg">
<path d="M20.0472 5.35941C18.6131 4.7302 17.0753 4.26662 15.4674 4.00111C15.4381 3.99599 15.4089 4.0088 15.3938 4.03441C15.196 4.37077 14.9769 4.80959 14.8235 5.1545C13.0941 4.90693 11.3736 4.90693 9.67967 5.1545C9.52623 4.80193 9.2992 4.37077 9.10054 4.03441C9.08545 4.00965 9.0562 3.99684 9.02692 4.00111C7.41991 4.26577 5.88209 4.72935 4.44713 5.35941C4.4347 5.36453 4.42405 5.37308 4.41699 5.38417C1.50005 9.55126 0.700984 13.6159 1.09298 17.6302C1.09476 17.6498 1.10628 17.6686 1.12225 17.6806C3.04676 19.032 4.91097 19.8525 6.74057 20.3963C6.76985 20.4048 6.80088 20.3946 6.81951 20.3715C7.2523 19.8064 7.6381 19.2105 7.96888 18.5838C7.9884 18.5471 7.96977 18.5036 7.92987 18.489C7.31793 18.2671 6.73525 17.9964 6.17474 17.6891C6.13041 17.6643 6.12686 17.6037 6.16765 17.5747C6.2856 17.4902 6.40358 17.4022 6.51621 17.3134C6.53658 17.2972 6.56498 17.2938 6.58893 17.304C10.2712 18.9116 14.2577 18.9116 17.8965 17.304C17.9205 17.293 17.9489 17.2964 17.9701 17.3126C18.0828 17.4014 18.2007 17.4902 18.3196 17.5747C18.3604 17.6037 18.3577 17.6643 18.3134 17.6891C17.7529 18.0024 17.1702 18.2671 16.5573 18.4882C16.5175 18.5027 16.4997 18.5471 16.5192 18.5838C16.8571 19.2096 17.2429 19.8055 17.6677 20.3707C17.6855 20.3946 17.7174 20.4048 17.7466 20.3963C19.5851 19.8525 21.4493 19.032 23.3738 17.6806C23.3907 17.6686 23.4013 17.6507 23.4031 17.631C23.8723 12.9901 22.6173 8.95877 20.0764 5.38502C20.0702 5.37308 20.0596 5.36453 20.0472 5.35941ZM8.51877 15.1859C7.41015 15.1859 6.49668 14.2127 6.49668 13.0174C6.49668 11.8222 7.39244 10.849 8.51877 10.849C9.65394 10.849 10.5586 11.8307 10.5408 13.0174C10.5408 14.2127 9.64507 15.1859 8.51877 15.1859ZM15.9951 15.1859C14.8865 15.1859 13.973 14.2127 13.973 13.0174C13.973 11.8222 14.8687 10.849 15.9951 10.849C17.1303 10.849 18.0349 11.8307 18.0172 13.0174C18.0172 14.2127 17.1303 15.1859 15.9951 15.1859Z" fill="white"/>
</svg>
